icons/read-16.svg

<svg width="16" height="16" viewBox="0 0 16 16" fill="none" xmlns="http://www.w3.org/2000/svg">
<path fill-rule="evenodd" clip-rule="evenodd" d="M7.11499 0.649428C7.66151 0.329056 8.33849 0.329057 8.88501 0.649428L15.135 4.31322C15.6708 4.62731 16 5.20186 16 5.82294V12.25C16 13.2165 15.2165 14 14.25 14H1.75C0.783501 14 0 13.2165 0 12.25V5.82294C0 5.20186 0.329188 4.62731 0.864991 4.31322L7.11499 0.649428ZM8.12643 1.94347C8.04836 1.89771 7.95164 1.89771 7.87357 1.94347L2.15461 5.29597L6.46712 7.76026C7.39311 7.13791 8.60687 7.13792 9.53286 7.76028L13.8454 5.29597L8.12643 1.94347ZM14.5 6.64954L10.813 8.75641L14.5 11.6534V6.64954ZM5.187 8.75638L1.5 6.64953V11.6533L5.187 8.75638ZM13.1497 12.5H2.85029L7.22769 9.0606C7.68096 8.70447 8.31898 8.70447 8.77225 9.0606L13.1497 12.5Z" fill="#24292F"/>
</svg>

<svg xmlns="http://www.w3.org/2000/svg" width="16" height="16" viewBox="0 0 16 16"><path fill-rule="evenodd" d="M7.115.65a1.75 1.75 0 011.77 0l6.25 3.663c.536.314.865.889.865 1.51v6.427A1.75 1.75 0 0114.25 14H1.75A1.75 1.75 0 010 12.25V5.823c0-.621.33-1.196.865-1.51L7.115.65zm1.011 1.293a.25.25 0 00-.252 0l-5.72 3.353L6.468 7.76a2.75 2.75 0 013.066 0l4.312-2.464-5.719-3.353zM14.5 6.65l-3.687 2.106 3.687 2.897V6.65zM5.187 8.756L1.5 6.65v5.003l3.687-2.897zM13.15 12.5H2.85l4.378-3.44a1.25 1.25 0 011.544 0l4.378 3.44z"/></svg>
